X: 342
T: Quanren xiaodiao
%%abc-version 2.0
%%abcx-abcm2ps-target-version 5.9.1 (29 Sep 2008)
%%abc-creator hum2abc beta
%%abcx-conversion-date 2013/10/02 07:52:30
%%abc-edited-by Helmut Schaffrath
%%humdrum-veritas 216093141
%%humdrum-veritas-data 800320259
%%continueall 1
%%barnumbers 0
L: 1/8
M: 4/4
K: G
d d/ A/ d e/ d/ c B/ d/A2 [I:setbarnb 1]| 
d A/ B/ A A/ D/G2F E | 
d F A B d G F E/ D/ | 
d A/ B/ A ED4 | 
G DG2A d B d | 
B A/ B/ A DG2F E | 
d F A B d G F/ E/ D | 
B A/ B/ A ED4 |]  



